build/img/phone.svg

<svg width="32" height="32" viewBox="0 0 32 32" fill="none" xmlns="http://www.w3.org/2000/svg">
<g clip-path="url(#clip0_102_163)">
<path d="M17.3333 10.6667C20.1373 10.6667 21.3333 11.8627 21.3333 14.6667H24C24 10.3667 21.6333 7.99999 17.3333 7.99999V10.6667ZM21.896 17.924C21.6398 17.6911 21.3031 17.5669 20.9571 17.5776C20.611 17.5883 20.2827 17.7331 20.0413 17.9813L16.8507 21.2627C16.0827 21.116 14.5387 20.6347 12.9493 19.0493C11.36 17.4587 10.8787 15.9107 10.736 15.148L14.0147 11.956C14.2632 11.7148 14.4082 11.3864 14.4189 11.0403C14.4296 10.6941 14.3052 10.3574 14.072 10.1013L9.14534 4.68399C8.91206 4.42714 8.58784 4.27133 8.24154 4.24967C7.89524 4.22801 7.55413 4.3422 7.29067 4.56799L4.39734 7.04933C4.16682 7.28068 4.02923 7.58859 4.01067 7.91466C3.99067 8.24799 3.60934 16.144 9.732 22.2693C15.0733 27.6093 21.764 28 23.6067 28C23.876 28 24.0413 27.992 24.0853 27.9893C24.4114 27.9711 24.7191 27.8329 24.9493 27.6013L27.4293 24.7067C27.6553 24.4434 27.7697 24.1024 27.7483 23.7561C27.7269 23.4098 27.5713 23.0855 27.3147 22.852L21.896 17.924Z" fill="#000080"/>
</g>
<defs>
<clipPath id="clip0_102_163">
<rect width="32" height="32" fill="white"/>
</clipPath>
</defs>
</svg>

<svg width="32" height="32" fill="none" xmlns="http://www.w3.org/2000/svg"><g clip-path="url(#clip0_102_163)"><path d="M17.333 10.667c2.804 0 4 1.196 4 4H24C24 10.367 21.633 8 17.333 8v2.667zm4.563 7.257a1.335 1.335 0 00-1.855.057l-3.19 3.282c-.768-.147-2.312-.628-3.902-2.214-1.589-1.59-2.07-3.138-2.213-3.901l3.279-3.192a1.334 1.334 0 00.057-1.855L9.145 4.684a1.333 1.333 0 00-1.854-.116L4.397 7.049c-.23.232-.368.54-.386.866-.02.333-.402 8.229 5.721 14.354C15.073 27.61 21.764 28 23.607 28c.269 0 .434-.008.478-.01.326-.019.634-.157.864-.389l2.48-2.894a1.333 1.333 0 00-.114-1.855l-5.419-4.928z" fill="navy"/></g><defs><clipPath id="clip0_102_163"><path fill="#fff" d="M0 0h32v32H0z"/></clipPath></defs></svg>
